X: 1844
T: Sûzinâk Peşrev
C: Nâyî Emin Dede
O: Turkey
F: http://compmusic.upf.edu/node/140
N: suzinak--pesrev--devrikebir----nayi_emin_dede
N: makam= suzinak
N: form= pesrev
N: usul= devrikebir = 28/4
M: 28/4
L: 1/16
K: C _1/4B _7/8e ^f 
Q: 1/4=72
%%MIDI tuningsystem comma53
c4 d4 d4 c2d2  | e2f2 e2d2 d2e2 d2c2  | \
w:  1. HANE  |   | 
c2d2 c2B2 z2B4BA  | 
w:   | 
A2GA B2AG G6c2  | B4 c4 d6f2  | e3d c2d2 c4 a2gf  | \
w:   |   |   | 
f3e dfed d6z2  | 
w:   | 
z4 d2e2 d4 e4  | f4 e2f2 a2g2 f2e2  | \
w:   |   | 
d6_7/8b2 a2b2 a2g2  | g2a2 g2f2 f2g2 f2e2  | 
w:   |   | 
e3d c4 z4 d2=e2  | d4 c4 B6A2  | AGAB A2G2 G6z2  | \
w:   |   |   | 
z2G4A2 B4 A2B2  | 
w:   | 
c4 B2c2 d2f2 e2d2  | d^c=B2 c2d2 c8  | \
w:   |   | 
z4 d2e2 f4 g4  | f2e2 e2d2 z2a2 g2f2  | 
w:   |   | 
f3e dfed d6B2  | c2d2 c2B2 d6z2  | z4 d2=e2 =f4 e2d2  | \
w:   |   |   | 
a2g2 =f2=e2 d4 c2B2  | 
w:   | 
B3A G4 z4 A2B2  | A4 G4 B2c2 B2c2  | \
w:   |   | 
d2ef e2d2 d2c4cB  | 
w:   | 
B6A2 A2GA B2AG  | G16  | |


